X:1
T:Donald's Awa Tae the War
L:1/8
M:6/8
I:linebreak $
K:A
V:1 treble 
V:1
 e | a2 A ABA | cdc cBA | e2 f e2 c | cBA B2 e | a2 A ABA | cdc cBA | e2 f e2 c | BGB A2 :|$ e | %10
 efg a2 g | fdf edc | efg a2 g | fdf e2 c | efg a2 e | faf ecA | e2 f e2 c | BGB A2 e |$ efg a2 g | %19
 fdf edc | efg a2 g | fdf e2 c | aga a2 e | faf ecA | e2 f e2 c | BGB A2 |] %26
